X:601
T:St Patrick's Cathedral
S:Nuala Kennedy, Edinburgh
Z:Nigel Gatherer
L:1/8
M:4/4
K:G
BABc d2 G2 | G2 A2 F2 G2 | EF G2 D2 G2 | c2 BG B2 A2 |
BABc d2 G2 | G2 A2 F2 G2 | EF G2 D2 G2 | GA F2 G4    |
FEFG A2 D2 | D2 A2 A2 G2 | BABc  d2 G2 | c2 BG B2 A2 |
BABc d2 G2 | G2 A2 F2 G2 | EF G2 D2 G2 | GA F2 G4   |]
<end>
<start>
